X: 131
T: The Templehouse
C: R-63
M: C|
Z: Transcribed to abc by Mary Lou Knack
R: reel
K: Em
%%text Repeat part A 4 times
"Em"EFGE BE (3GFD| "D"D2 (3FED A>D (3FED| "Em"DFGA BAB^c| "Bm"dBAc "Em"BEE2:|
|:\
"Em"g2ef g2eg| "D"fdde fddf| "Em"gfef gfeg| "D"fgaf "Em"bgef|
"Em"gfef gfeg| "D"fdde fddf| "Em"efge afge| "Bm"dBAc "Em"BE E2 :|
%%text 1/25/02.  From O'Neill "1001 Gems"
% ---------- page 68 ----------
